!!!COM: Palestrina, Giovanni Perluigi da
!!!OPR: In semidupl. maj. (I)
!!!OTL: Benedictus
**kern	**kern	**kern	**kern
*Itenor	*Itenor	*Icalto	*Icant
!Tenor 2	!Tenor 1	!Altus	!Cantus
*clefGv2	*clefGv2	*clefG2	*clefG2
*k[b-]	*k[b-]	*k[b-]	*k[b-]
*F:ion	*F:ion	*F:ion	*F:ion
*M4/2	*M4/2	*M4/2	*M4/2
=1	=1	=1	=1
0r	0r	1B-	1r
.	.	1d	1f
=2	=2	=2	=2
0r	0r	1f	1a
.	.	2f	1cc
.	.	4e	.
.	.	4d	.
=3	=3	=3	=3
0r	1F	4c	1cc
.	.	4B-	.
.	.	4A	.
.	.	4G	.
.	1A	2F	1a
.	.	[2f	.
=4	=4	=4	=4
0r	1c	2f]	1g
.	.	4e	.
.	.	4d	.
.	1c	1e	2r
.	.	.	2g
=5	=5	=5	=5
0r	1A	2c	8a
.	.	.	8g
.	.	.	8a
.	.	.	8b-
.	.	2c	1cc
.	2G	1d	.
.	2G	.	2b-
=6	=6	=6	=6
1F	4A	0c	2.cc
.	4G	.	.
.	4A	.	.
.	4B-	.	4b-
1A	4c	.	[1a
.	4B-	.	.
.	4A	.	.
.	4G	.	.
=7	=7	=7	=7
1c	2F	2r	2a]
.	2E	2G	2g
1c	[1F	4A	2r
.	.	4G	.
.	.	4A	2f
.	.	4B-	.
=8	=8	=8	=8
1A	1F]	2c	4a
.	.	.	4g
.	.	1f	4a
.	.	.	4b-
2G	1C	.	2.cc
[2c	.	2e	.
.	.	.	4b-
=9	=9	=9	=9
2c]	1F	1f	4a
.	.	.	4g
1d	.	.	4f
.	.	.	4e
.	1r	1r	2f
[2c	.	.	2e
=10	=10	=10	=10
2c]	1G	1r	1d
2B	.	.	.
1c	1A	2r	1c
.	.	2c	.
=11	=11	=11	=11
2r	1G	1d	1g
2B-	.	.	.
2c	1F	1f	1a
[2d	.	.	.
=12	=12	=12	=12
2d]	0G	2.e	1g
1c	.	.	.
.	.	8d	.
.	.	8c	.
.	.	1d	[1g
2B	.	.	.
=13	=13	=13	=13
1c	2r	2e	2g]
.	2A	2c	2e
1r	2A	2c	2f
.	2G	2d	2g
=14	=14	=14	=14
1r	1F	1f	1a
2r	2.A	1e	[1cc
2A	.	.	.
.	4B-	.	.
=15	=15	=15	=15
2A	2c	0r	2cc]
2G	1d	.	2b-
1F	.	.	[1a
.	4c	.	.
.	4B-	.	.
=16	=16	=16	=16
2.A	4c	1r	0a]
.	4B-	.	.
.	4A	.	.
4B-	4G	.	.
2c	4A	2r	.
.	4G	.	.
[2d	4F	2A	.
.	4E	.	.
=17	=17	=17	=17
4d]	2F	2A	0r
4c	.	.	.
1c	2E	2G	.
.	1D	1F	.
2B	.	.	.
=18	=18	=18	=18
1c	2r	2.A	2r
.	2F	.	2a
.	.	4B-	.
2r	2A	2c	2a
2G	2B-	2d	2g
=19	=19	=19	=19
2A	4c	2c	1f
.	8B-	.	.
.	8c	.	.
2B-	2d	1f	.
2.c	1A	.	2.a
.	.	4e	.
4B-	.	4d	4b-
=20	=20	=20	=20
4A	0r	2e	2cc
4G	.	.	.
2F	.	1f	2.dd
2A	.	.	.
.	.	.	4cc
2A	.	2c	[2cc
=21	=21	=21	=21
2.G	1r	1d	2cc]
.	.	.	2b
4F	.	.	.
2E	2r	[1c	[1cc
2F	2A	.	.
=22	=22	=22	=22
2F	2A	1c]	0cc]
2E	2G	.	.
2.A	2.F	2r	.
.	.	2A	.
4G	4G	.	.
=23	=23	=23	=23
2F	4A	2A	1r
.	4B-	.	.
2E	2c	2G	.
1D	1d	4F	2r
.	.	4G	.
.	.	4A	2a
.	.	4B-	.
=24	=24	=24	=24
0r	2A	2c	2a
.	1B-	1d	2g
.	.	.	1f
.	4A	4c	.
.	4G	4B-	.
=25	=25	=25	=25
2r	1F	1c	2.a
2A	.	.	.
.	.	.	4b-
2A	2r	2r	2cc
2G	2B-	2d	[2dd
=26	=26	=26	=26
1F	2.A	1.f	2dd]
.	.	.	4cc
.	4G	.	4b-
2.A	[1F	.	4cc
.	.	.	4b-
.	.	2f	4a
4B-	.	.	4g
=27	=27	=27	=27
2c	2F]	0f	1a
2.d	2D	.	.
.	1F	.	1a
4c	.	.	.
[2c	.	.	.
=28	=28	=28	=28
2c]	1G	1d	[0g
4B	.	.	.
4A	.	.	.
2B	1G	1d	.
2B	.	.	.
=29	=29	=29	=29
[0c	[0C	[0e	1g_
.	.	.	1g_
=30	=30	=30	=30
0c]	0C]	0e]	0g]
*-	*-	*-	*-
!! B.Hosanna
**kern	**kern	**kern	**kern	**kern
*Ibass	*Itenor	*Itenor	*Icalto	*Icant
!Bassus	!Tenor 2	!Tenor 1	!Altus	!Cantus
*clefF4	*clefGv2	*clefGv2	*clefG2	*clefG2
*k[b-]	*k[b-]	*k[b-]	*k[b-]	*k[b-]
*F:ion	*F:ion	*F:ion	*F:ion	*F:ion
*M3/2	*M3/2	*M3/2	*M3/2	*M3/2
=31	=31	=31	=31	=31
1r	1r	1r	2g	1r
.	.	.	2g	.
2r	2r	2r	2a	2r
=32	=32	=32	=32	=32
1r	2c	1r	2.g	1r
.	2c	.	.	.
.	.	.	4e	.
2r	2d	2r	2f	2r
=33	=33	=33	=33	=33
1r	2.c	1r	2.e	2cc
.	.	.	.	2cc
.	4A	.	4f	.
2r	2B-	2r	2d	2dd
=34	=34	=34	=34	=34
1r	2.A	1r	2e	2.cc
.	.	.	2f	.
.	4F	.	.	4a
2r	2G	2r	2d	2b-
=35	=35	=35	=35	=35
1r	2c	1r	2e	1g
.	4G	.	4d	.
.	4A	.	4c	.
2r	4B-	2r	4d	[2f
.	4c	.	4e	.
=36	=36	=36	=36	=36
2r	2d	1r	1f	2f]
1C	2.c	.	.	1g
.	.	2r	2e	.
.	4B-	.	.	.
=37	=37	=37	=37	=37
2.F	1A	2c	2f	1a
.	.	2c	2f	.
4E	.	.	.	.
2D	2r	2d	2f	2b-
=38	=38	=38	=38	=38
2E	1r	2.c	2g	2cc
2F	.	.	2f	2a
.	.	4A	.	.
2G	2r	2B-	2d	2g
=39	=39	=39	=39	=39
2E	1r	1G	1e	2g
2C	.	.	.	4cc
.	.	.	.	4b-
2D	2r	[2F	2f	4a
.	.	.	.	4g
=40	=40	=40	=40	=40
2.F	1r	2F]	1c	2a
.	.	1G	.	1g
8E	.	.	.	.
8D	.	.	.	.
2E	2r	.	2r	.
=41	=41	=41	=41	=41
1F	2c	2A	2F	1.f
.	2c	2F	2A	.
2r	2d	2D	2B-	.
=42	=42	=42	=42	=42
2FF	2.c	1F	2A	2cc
2FF	.	.	2F	2cc
.	4A	.	.	.
2BB-	2B-	2D	2f	2dd
=43	=43	=43	=43	=43
2C	2G	2E	2e	2.cc
2AA	2F	2F	2c	.
.	.	.	.	4a
2GG	2G	2E	2g	2b-
=44	=44	=44	=44	=44
1FF	[1.A	2.F	1c	1a
.	.	4E	.	.
2r	.	2D	2d	2f
=45	=45	=45	=45	=45
2AA	2A]	2A	2c#	2e
2BB-	2F	2D	2d	2d
2C	2E	2r	2g	2c
=46	=46	=46	=46	=46
2D	2D	2F	2f	2f
2E	2C	2c	2e	2g
2F	2F	2A	2c	2a
=47	=47	=47	=47	=47
2C	2G	2G	2e	2.cc
4FF	2A	2F	2f	.
4GG	.	.	.	4b-
4AA	[2c	2C	[2e	2a
4BB-	.	.	.	.
=48	=48	=48	=48	=48
2C	4c]	2E	4e]	2g
.	4B-	.	4d	.
2FF	2A	2F	4c	2f
.	.	.	4B-	.
2C	2G	2G	2c	2e
=49	=49	=49	=49	=49
2FF	2F	2A	2c	1f
1C	1G	2G	1c	.
.	.	2c	.	2e
=50	=50	=50	=50	=50
[1.FF	[1.F	[1.A	[1.c	[1.f
=51	=51	=51	=51	=51
2FF_	2F_	2A_	2c_	2f_
1FF_	1F_	1A_	1c_	1f_
=52	=52	=52	=52	=52
1FF]	1F]	1A]	1c]	1f]
==	==	==	==	==
*-	*-	*-	*-	*-
!!!CDT: 1525/^1526/-1594/2/2
!!!OCY: Italia
!!!AGN: Mass (Paraphrase)
!!!AST: renaissance, vocal
!!!ASW: Gregorian Mass
!!!PWK: Masses, Book Mantuan II
!!!RNB: Cadence finals: C
!!!YOR: Le Opere Complete, v. 19, p. 129
!!!YOO: Rome, Italy: Fratelli Scalera
!!!END: 1992//
!!!EED: John Miller
!!!YEC: Copyright 2000, John Miller
!!!YEN: United States of America
!!!YEM: Rights to all derivative electronic formats reserved.
!!!YEM: Refer to licensing agreement for further details.
!!!YEM: This file must be accompanied by the licensing agreement.
!!!YEM: A copy of the licensing agreement may be found at http://www.music-cog.ohio-state.edu/HumdrumDatabases/Palestrina/license.txt
!!!EMD: converted to Humdrum by Bret Aarden
